local/share/icons/dracula-icons-main/scalable/apps/distributor-logo-ubuntu-gnome.svg

<?xml version="1.0" encoding="UTF-8"?>
<svg xmlns="http://www.w3.org/2000/svg" xmlns:xlink="http://www.w3.org/1999/xlink" width="64" height="64" viewBox="0 0 64 64">
<path fill-rule="nonzero" fill="rgb(0%, 52.941176%, 92.941176%)" fill-opacity="1" d="M 8.378906 1.324219 C 10.953125 1.292969 13.34375 2.648438 14.640625 4.871094 C 15.933594 7.09375 15.933594 9.839844 14.640625 12.0625 C 13.34375 14.285156 10.953125 15.640625 8.378906 15.609375 C 4.46875 15.5625 1.324219 12.378906 1.324219 8.464844 C 1.324219 4.554688 4.46875 1.371094 8.378906 1.324219 Z M 8.378906 1.324219 "/>
<path fill-rule="nonzero" fill="rgb(100%, 100%, 100%)" fill-opacity="1" d="M 7.648438 4.152344 C 7.382812 4.316406 7.125 4.488281 6.871094 4.671875 C 6.5625 4.890625 6.234375 5.171875 5.882812 5.523438 C 5.578125 5.828125 5.367188 6.125 5.242188 6.421875 C 5.128906 6.71875 5.085938 7.015625 5.121094 7.304688 C 5.15625 7.59375 5.257812 7.871094 5.417969 8.148438 C 5.601562 8.445312 5.824219 8.722656 6.074219 8.96875 L 8.292969 11.1875 L 9.003906 10.480469 L 6.933594 8.410156 C 6.453125 7.933594 6.183594 7.511719 6.128906 7.148438 C 6.070312 6.789062 6.222656 6.429688 6.582031 6.070312 C 6.660156 5.992188 6.738281 5.917969 6.824219 5.84375 L 7.070312 5.628906 C 7.140625 5.574219 7.214844 5.519531 7.28125 5.460938 C 7.332031 5.425781 7.386719 5.390625 7.441406 5.363281 L 11.992188 9.914062 L 12.699219 9.207031 Z M 7.429688 6.398438 L 6.71875 7.109375 L 10.058594 10.445312 C 10.03125 10.503906 10 10.554688 9.960938 10.605469 C 9.902344 10.675781 9.847656 10.746094 9.792969 10.820312 L 9.578125 11.0625 C 9.507812 11.144531 9.429688 11.226562 9.351562 11.304688 C 8.992188 11.664062 8.632812 11.816406 8.273438 11.761719 C 7.910156 11.707031 7.492188 11.4375 7.007812 10.957031 L 4.941406 8.886719 L 4.234375 9.597656 L 6.453125 11.816406 C 6.699219 12.066406 6.976562 12.285156 7.277344 12.46875 C 7.550781 12.632812 7.832031 12.730469 8.121094 12.765625 C 8.410156 12.804688 8.703125 12.761719 9.003906 12.644531 C 9.296875 12.523438 9.59375 12.3125 9.898438 12.007812 C 10.25 11.65625 10.53125 11.328125 10.75 11.015625 C 10.972656 10.703125 11.148438 10.445312 11.269531 10.242188 Z M 7.429688 6.398438 "/>
</svg>

<svg width="64" height="64" version="1.1" viewBox="0 0 16.933 16.933" xmlns="http://www.w3.org/2000/svg">
 <g transform="matrix(1.0385 0 0 1.0385 -.41232 -.32567)" stroke-width=".92729">
  <path d="m8.467 1.588a6.879 6.879 0 1 1 0 13.757 6.879 6.879 0 0 1 0-13.757z" fill="#0087ed"/>
 </g>
 <path d="M7.648 4.154a12.69 12.69 0 0 0-.776.517c-.31.218-.639.502-.989.852-.304.304-.517.603-.639.897-.116.3-.157.594-.121.883.035.289.134.57.296.844a4.3 4.3 0 0 0 .654.821l2.221 2.22.708-.706-2.07-2.07c-.48-.48-.75-.902-.805-1.262-.056-.36.096-.72.456-1.08.076-.076.157-.152.243-.228l.244-.213a5.34 5.34 0 0 0 .213-.167.988.988 0 0 1 .16-.099l4.55 4.55.707-.707zM7.428 6.4l-.708.708 3.34 3.338a.985.985 0 0 1-.1.16 5.38 5.38 0 0 0-.167.213l-.213.243a5.362 5.362 0 0 1-.228.244c-.36.36-.72.512-1.08.456-.36-.056-.781-.324-1.263-.806L4.941 8.888l-.708.708 2.221 2.22a4.3 4.3 0 0 0 .822.654c.273.163.555.262.844.297.289.036.583-.005.882-.122.294-.121.593-.334.897-.638.35-.35.634-.68.852-.99.223-.314.396-.572.517-.775z" fill="#fff"/>
</svg>
